X:1
T:Title
%%score { ( 1 3 ) | ( 2 4 ) }
L:1/8
M:6/4
K:Db
V:1 treble nm="Grand Piano"
V:3 treble 
V:2 bass 
V:4 bass 
V:1
 z6 z4[Q:1/4=114] [DF][EG] | [FA]3 [_F=G] [=FA]2 [_GB]2 [FA]2 [_F=G]2 | %2
 [FA]2 [Fd]4- [Fd]4 [Fd][Fd] | [Gd]3 [Ac] [GB]2 [Gd]2 [Ac]2 [GB]2 | [FA]6- [FA]4 [GB]>[FA] | %5
 A2 G2 F2 G4 A>G |[M:5/4] G2 F2 _F2 =F4 |[M:1/4] FF |[M:6/4] E2 A2 c2 [=Ge]4 G2 | %9
[M:5/4] A2- A2- A6 |[M:1/4] F[EG] |[M:6/4] [FA]3 [_F=G] [=FA]2 [_GB]4 [A,FA]2 | %12
[M:5/4] [EG]2- [EG]2- [EG]6 |[M:1/4] EF |[M:6/4] G3 F G2 c4 B2 | [FA]12 | %16
[M:5/4] [FA]3 [_F=G] [=FA]2 [_GB]4 |[M:1/4] [G=A][GB] |[M:6/4] c2 B2 c2 d4 cd | %19
[M:7/4] [=Ge]2 [GB]2 [Gf]2 [_Ge]6 [Fd]2 |[M:5/4] [Fd]2- [Fd]2- [Fd]6 |] %21
V:2
 z6 z4 [D,A,][D,A,] | [D,D]3 [D,D] [D,D]2 [D,D]2 [D,D]2 [D,B,]2 | %2
 [D,D]2 [D,A,]4- [D,A,]4 [D,A,][D,A,] | [G,B,]3 [G,C] [G,D]2 [G,B,]2 [G,C]2 [G,D]2 | %4
 [D,D]6- [D,D]4 [D,D]>[D,D] | [A,CF]2 [A,CE]2 [A,_C=D]2 [A,=CE]4 [A,CF]>[K:bass][A,E] | %6
[M:5/4] [D,B,D]2 [D,A,D]2 [D,=G,D]2 [D,A,D]4 |[M:1/4] [D,A,D][D,A,D] | %8
[M:6/4] [E,A,C]2 [E,A,C]2 [E,A,E]2 [E,B,]4 [E,DE]2 |[M:5/4] [A,CE]2- [A,CE]2- [A,CE]6 | %10
[M:1/4] [D,A,D][D,A,] |[M:6/4] [D,D]3 [D,D] [D,D]2 [D,D]4 D,2 |[M:5/4] A,,2 C,2 E,2 A,4 | %13
[M:1/4][K:treble] [A,C][A,D] |[M:6/4] [A,CE]3 [A,C=D] [A,CE]2 [A,EG]4 [A,CG]2 | %15
 .D6 z4 [D,A,D]>[D,A,] |[M:5/4] [D,D]3 [D,D] [D,D]2 [G,D]4 |[M:1/4] [E,E][E,E] | %18
[M:6/4][K:treble] [A,EG]2 [A,EG]2 [=A,EG]2 [B,DF]4 [B,DF][B,DF] | %19
[M:7/4][K:bass] [E,D]2 [E,E]2 [E,D]2 [A,C]6 [D,A,]2 |[M:5/4] [D,A,]2- [D,A,]2- [D,A,]6 |] %21
V:3
 x12 | x12 | x12 | x12 | x12 | x12 |[M:5/4] x10 |[M:1/4] x2 |[M:6/4] x12 |[M:5/4] x10 |[M:1/4] x2 | %11
[M:6/4] x12 |[M:5/4] C4 C2 C4 |[M:1/4] x2 |[M:6/4] x12 | z2 C2 B,2 A,4 F>[EG] |[M:5/4] x10 | %17
[M:1/4] x2 |[M:6/4] x12 |[M:7/4] x14 |[M:5/4] x10 |] %21
V:4
 x12 | x12 | x12 | x12 | x12 | x23/2[K:bass] x/ |[M:5/4] x10 |[M:1/4] x2 |[M:6/4] x12 | %9
[M:5/4] x10 |[M:1/4] x2 |[M:6/4] x12 |[M:5/4] x10 |[M:1/4][K:treble] x2 |[M:6/4] x12 | D,12 | %16
[M:5/4] x10 |[M:1/4] x2 |[M:6/4][K:treble] x12 |[M:7/4][K:bass] x14 |[M:5/4] x10 |] %21

